cssgg/git-pull.svg

<svg
  width="24"
  height="24"
  viewBox="0 0 24 24"
  fill="none"
  xmlns="http://www.w3.org/2000/svg"
>
  <path
    d="M7 5C7 3.89543 7.89543 3 9 3C10.1046 3 11 3.89543 11 5C11 5.34168 10.9143 5.66336 10.7633 5.9447H11.3438C13.5529 5.9447 15.3438 7.73556 15.3438 9.9447V11.2244C15.9301 11.5731 16.323 12.213 16.323 12.9447C16.323 14.0493 15.4276 14.9447 14.323 14.9447C13.2184 14.9447 12.323 14.0493 12.323 12.9447C12.323 12.1959 12.7345 11.5432 13.3438 11.2004V9.9447C13.3438 8.84013 12.4483 7.9447 11.3438 7.9447H10V17.2676C10.5978 17.6134 11 18.2597 11 19C11 20.1046 10.1046 21 9 21C7.89543 21 7 20.1046 7 19C7 18.2597 7.4022 17.6134 8 17.2676V6.73244C7.4022 6.38663 7 5.74028 7 5Z"
    fill="currentColor"
  />
</svg>

<svg viewBox="0 0 24 24" xmlns="http://www.w3.org/2000/svg"><path d="M7 5c0-1.11.89-2 2-2 1.1 0 2 .89 2 2 0 .34-.09.66-.24.94h.58c2.2 0 4 1.79 4 4v1.27c.58.34.97.98.97 1.72 0 1.1-.9 2-2 2 -1.11 0-2-.9-2-2 0-.75.41-1.41 1.02-1.75V9.92c0-1.11-.9-2-2-2H9.98v9.32c.59.34 1 .99 1 1.73 0 1.1-.9 2-2 2 -1.11 0-2-.9-2-2 0-.75.4-1.39 1-1.74V6.69c-.6-.35-1-1-1-1.74Z"/></svg>
